platform/icons/src/nodes/propertyReadWriteStatic.svg

<svg id="Layer_1" data-name="Layer 1" xmlns="http://www.w3.org/2000/svg" width="16" height="16" viewBox="0 0 16 16">
  <title>propertyReadWriteStatic</title>
  <g>
    <g opacity="0.6">
      <path d="M9.586,13.5,13.5,9.586l1.00023,1.00029A6.99819,6.99819,0,1,0,1,8.00008c0,.017.00244.03332.00244.05023A2.49332,2.49332,0,0,1,2.98481,12.5a2.51725,2.51725,0,0,1,.82665,1.0991,6.95619,6.95619,0,0,0,6.77505.9013Z" fill="#b99bf8"/>
    </g>
    <path d="M8.71619,10.62324a2.47139,2.47139,0,0,1-.586-.06424,2.22248,2.22248,0,0,1-.47371-.17047,1.73219,1.73219,0,0,1-.37239-.24953,2.41474,2.41474,0,0,1-.28751-.30142H6.93089q.01644.168.03286.32118.011.12848.02191.26436t.011.21494v2.31743h-.9967V5.099h.8105l.14239.7313h.04381a2.36516,2.36516,0,0,1,.28477-.32365A1.65356,1.65356,0,0,1,7.651,5.24471a2.14156,2.14156,0,0,1,.4737-.17788A2.59162,2.59162,0,0,1,9.65265,5.178a1.895,1.895,0,0,1,.72014.53118,2.50034,2.50034,0,0,1,.46275.87707,4.06858,4.06858,0,0,1,.1643,1.21554,4.11219,4.11219,0,0,1-.1643,1.22295,2.52476,2.52476,0,0,1-.46275.882,1.9075,1.9075,0,0,1-.72014.53612A2.35773,2.35773,0,0,1,8.71619,10.62324Zm-.19167-4.877a1.92,1.92,0,0,0-.70372.11365,1.06751,1.06751,0,0,0-.46549.34588,1.54286,1.54286,0,0,0-.26286.57812,3.82808,3.82808,0,0,0-.09584.81531V7.8018a4.7708,4.7708,0,0,0,.07393.887,1.73924,1.73924,0,0,0,.25191.65224,1.12612,1.12612,0,0,0,.47371.40024,1.77057,1.77057,0,0,0,.73931.13588,1.201,1.201,0,0,0,1.08706-.53859,2.85676,2.85676,0,0,0,.34775-1.54661,2.74393,2.74393,0,0,0-.34775-1.53672A1.23548,1.23548,0,0,0,8.52452,5.74625Z" fill="#231f20" opacity="0.7"/>
    <circle cx="1.49998" cy="14.49998" r="1.49998" fill="#46a822"/>
    <circle cx="1.49998" cy="10.50004" r="1.49998" fill="#f26522"/>
    <rect x="11.73202" y="11.73233" width="3.5358" height="3.53536" transform="translate(13.49923 -5.59182) rotate(44.99773)" fill="#9aa7b0"/>
  </g>
</svg>

<svg id="Layer_1" data-name="Layer 1" xmlns="http://www.w3.org/2000/svg" viewBox="0 0 16 16">
  <title>propertyReadWriteStatic</title>
  <g>
    <circle cx="1.5" cy="14.49995" r="1.5" fill="#46a822"/>
    <circle cx="1.5" cy="10.49995" r="1.5" fill="#f26522"/>
    <g opacity="0.5">
      <path d="M9.58618,13.5l3.91406-3.91406,1.00024,1.00031A6.99829,6.99829,0,1,0,1,8c0,0.017.00244,0.03333,0.00244,0.05023A2.49336,2.49336,0,0,1,2.98486,12.5a2.51741,2.51741,0,0,1,.82666,1.09912,6.95627,6.95627,0,0,0,6.77515.90131Z" fill="#b99bf8"/>
    </g>
    <g opacity="0.6">
      <path d="M8.71632,10.62315a2.47124,2.47124,0,0,1-.586-0.06424,2.22258,2.22258,0,0,1-.47371-0.17047,1.73206,1.73206,0,0,1-.3724-0.24954A2.41451,2.41451,0,0,1,6.9967,9.83747H6.931q0.01643,0.168.03286,0.32118,0.011,0.12847.02191,0.26436t0.011,0.21495v2.31747H6V5.09877H6.81051L6.9529,5.83009H6.99671a2.36588,2.36588,0,0,1,.28478-0.32366,1.65334,1.65334,0,0,1,.36966-0.26189,2.14169,2.14169,0,0,1,.47371-0.17789,2.59175,2.59175,0,0,1,1.52793.11118,1.895,1.895,0,0,1,.72015.53119,2.50059,2.50059,0,0,1,.46276.87708A4.06875,4.06875,0,0,1,11,7.80166a4.11232,4.11232,0,0,1-.16429,1.223,2.525,2.525,0,0,1-.46276.882,1.90755,1.90755,0,0,1-.72015.53613A2.35783,2.35783,0,0,1,8.71632,10.62315ZM8.52464,5.74608a1.92,1.92,0,0,0-.70372.11365,1.0675,1.0675,0,0,0-.4655.34589,1.54277,1.54277,0,0,0-.26287.57813,3.82831,3.82831,0,0,0-.09584.81531v0.2026a4.7711,4.7711,0,0,0,.07393.887,1.73913,1.73913,0,0,0,.25192.65225,1.12611,1.12611,0,0,0,.47371.40025A1.77058,1.77058,0,0,0,8.5356,9.877a1.201,1.201,0,0,0,1.08708-.5386,2.85676,2.85676,0,0,0,.34775-1.54663A2.74393,2.74393,0,0,0,9.62267,6.255,1.23548,1.23548,0,0,0,8.52464,5.74608Z" fill="#231f20"/>
    </g>
    <rect x="11.7324" y="11.73204" width="3.53542" height="3.53585" transform="translate(-5.59183 13.50083) rotate(-45.00227)" fill="#9aa7b0"/>
  </g>
</svg>
